X: 0903
M: 4/4
L: 1/8
K: F
|: B>A |\
K: Bb
|: F>B |\
d2d2 c2d2 | e6 A2 | B2B2 c2c2 | d2f2 c2F>B |\
d2d2 c2d2 | e6 A2 | BFBc decd | c4 B2 :|

